Newaita/actions/32/align-vertical-top.svg

<?xml version="1.0" encoding="UTF-8"?>
<svg xmlns="http://www.w3.org/2000/svg" xmlns:xlink="http://www.w3.org/1999/xlink" width="32pt" height="32pt" viewBox="0 0 32 32" version="1.1">
<g id="surface1">
<path style=" stroke:none;fill-rule:nonzero;fill:rgb(25.882354%,25.882354%,25.882354%);fill-opacity:0.988235;" d="M 4.628906 6.863281 C 3.53125 6.863281 2.644531 7.75 2.644531 8.851562 L 2.644531 15.464844 C 2.644531 16.566406 3.53125 17.449219 4.628906 17.449219 L 11.246094 17.449219 C 12.34375 17.449219 13.230469 16.566406 13.230469 15.464844 L 13.230469 8.851562 C 13.230469 7.75 12.34375 6.863281 11.246094 6.863281 Z M 5.292969 8.851562 L 10.585938 8.851562 C 10.949219 8.851562 11.246094 9.144531 11.246094 9.511719 L 11.246094 14.804688 C 11.246094 15.171875 10.949219 15.464844 10.585938 15.464844 L 5.292969 15.464844 C 4.925781 15.464844 4.628906 15.171875 4.628906 14.804688 L 4.628906 9.511719 C 4.628906 9.144531 4.925781 8.851562 5.292969 8.851562 Z M 5.292969 8.851562 "/>
<path style=" stroke:none;fill-rule:nonzero;fill:rgb(100%,43.921569%,26.274511%);fill-opacity:0.988235;" d="M 3.636719 2.234375 L 28.113281 2.234375 C 28.664062 2.234375 29.105469 2.679688 29.105469 3.226562 C 29.105469 3.773438 28.664062 4.21875 28.113281 4.21875 L 3.636719 4.21875 C 3.089844 4.21875 2.644531 3.773438 2.644531 3.226562 C 2.644531 2.679688 3.089844 2.234375 3.636719 2.234375 Z M 3.636719 2.234375 "/>
<path style=" stroke:none;fill-rule:nonzero;fill:rgb(25.882354%,25.882354%,25.882354%);fill-opacity:0.988235;" d="M 20.507812 6.863281 C 19.40625 6.863281 18.523438 7.75 18.523438 8.851562 L 18.523438 28.035156 C 18.523438 29.132812 19.40625 30.019531 20.507812 30.019531 L 27.121094 30.019531 C 28.222656 30.019531 29.105469 29.132812 29.105469 28.035156 L 29.105469 8.851562 C 29.105469 7.75 28.222656 6.863281 27.121094 6.863281 Z M 21.167969 8.851562 L 26.460938 8.851562 C 26.828125 8.851562 27.121094 9.144531 27.121094 9.511719 L 27.121094 27.371094 C 27.121094 27.738281 26.828125 28.035156 26.460938 28.035156 L 21.167969 28.035156 C 20.800781 28.035156 20.507812 27.738281 20.507812 27.371094 L 20.507812 9.511719 C 20.507812 9.144531 20.800781 8.851562 21.167969 8.851562 Z M 21.167969 8.851562 "/>
</g>
</svg>

<svg xmlns="http://www.w3.org/2000/svg" width="32pt" height="32pt" viewBox="0 0 32 32"><g fill-opacity=".988"><path d="M4.629 6.863a1.983 1.983 0 0 0-1.984 1.989v6.613a1.98 1.98 0 0 0 1.984 1.984h6.617a1.98 1.98 0 0 0 1.984-1.984V8.852a1.983 1.983 0 0 0-1.984-1.989zm.664 1.989h5.293a.66.66 0 0 1 .66.66v5.293a.66.66 0 0 1-.66.66H5.293a.66.66 0 0 1-.664-.66V9.512a.66.66 0 0 1 .664-.66zm0 0" fill="#424242"/><path d="M3.637 2.234h24.476a.991.991 0 1 1 0 1.985H3.637a.994.994 0 0 1-.992-.992c0-.547.445-.993.992-.993zm0 0" fill="#ff7043"/><path d="M20.508 6.863a1.98 1.98 0 0 0-1.985 1.989v19.183a1.98 1.98 0 0 0 1.985 1.985h6.613a1.98 1.98 0 0 0 1.984-1.985V8.852a1.98 1.98 0 0 0-1.984-1.989zm.66 1.989h5.293c.367 0 .66.293.66.66v17.86a.66.66 0 0 1-.66.663h-5.293a.66.66 0 0 1-.66-.664V9.511c0-.366.293-.66.66-.66zm0 0" fill="#424242"/></g></svg>
